X: 232
M: C|
L: 1/8
K: A
V: 1
e | cAAc dBcA | cAAg a2fd | cAAc dBcA | GEEG A2A :| B | GBBd cAAc | dfed dcBA |
V: 2 clef=bass middle=d
z | [a2A2][a2A2] [b2B2][a2A2] | [a2A2][a2A2] [a2A2][a2A2] |\
    [a2A2][a2A2] [b2B2][a2A2] | [e2E2][e2E2] [a2A2][aA] :|
z | e2e2 A2c2 | d2e2 a2a2 | e2e2 a2A2 | d2e2 A2A2 |
    e2e2 a2a2 | d2e2 A2A2 | d2c2 B2c2 | d2e2 A2A |]


